X:1
T:Title
%%score 1 2
L:1/8
Q:1/4=140
M:2/2
K:F
V:1 treble nm="E.Piano 2, Staff"
V:2 treble nm="Nylon Gtr., Staff-1"
V:1
 C4 C4 | F2 G2 A2 B2 | c4 z4 | A4 c4 |[M:3/2] B2 A2 F4 G4 |[M:2/2] F4 z4 | A4 G4 | F2 F2 B2 B2 | %8
w: By~Pierre~Davant�s,~�enevo~1562 *||||||||
 A4 z4 | F4 G4 | E2 F2 D2 D2 | C8 |] %12
w: ||||
V:2
 [G,CE]4 [A,CE]4 | [A,CF]4 [A,CE]4 | [G,CE]4 z4 | [A,CF]4 [A,CE]4 |[M:3/2] [B,DF]8 [G,CE]4 | %5
[M:2/2] [A,CF]4 z4 | [A,CF]4 [G,B,D]4 | [A,DF]4 [F,B,D]4 | [A,CF]4 z4 | [A,CF]4[K:bass] [G,B,D]4 | %10
 [G,CE]4 [F,B,D]4 | [G,CE]8 |] %12

